X: 1
T: Upstairs In A Tent
R: reel
M: 4/4
L: 1/8
K: Amix
|:(3AAA Ag fdec|A2 A=c BG(3GGG|AGAg fdef|1 ~g3d BGGB:|2 ~g3d BG(3GGG||
|:faaf gfed|(3cBA eA fAeA|faaf gfef|1 ~g3d BG(3GGG:|2 ~g3d BGGB||


Tune 136	Setting 26459

